X: 3
T: O World,  I Now Must Leave Thee
C: J. S. Bach
N: Moderately
K: A
L: 1/4
Q: 1/4=120
M: 4/4
"A" c | "D" A "E7" B "A" (c/d/) "A" e | "D" d2 "A" !fermata! c "A" c | "A" e e "E" B "A" d/c/ |
"A" A2 "E" !fermata! G "E7" E | "A" A "E7" B "A" (c/d/4e/4) "A" (d/c/) | "E" B3 "A" c |
"F#m" A "E" B "A" (c/d/) "A" e | "D" d2 "A" !fermata! c "F#m" (c/d/) | "A" e e "E" B "C#m" c |
"A" A2 "E" !fermata! G "E" E | "A" A "E7" B "A" (c/d/) "A" (e/d/) | "E" c "E7" B "A" !fermata! A |]
W: From p 32,  _Baroque & Folk Tunes For the Recorder_

